!!!OTL: Daoqing diao
!!!ARE: Asia, China,ÿJiangsu, Sunan)
!! III, 512
!!!SCT: C1597
!!!YEM: Copyright 1995, estate of Helmut Schaffrath.
**kern
*ICvox
*Ivox
*M2/4
*k[f#c#]
*D:
{4b
16ee
16ff#
16dd
16b
=1
4.a
8b
=2
8dd
8dd
16b
16dd
16b
16a
=3
2f#}
=4
{8.b
16dd
16ee
16ff#
16dd
16b
=5
4.a
8b
=6
8dd
8dd
16b
16dd
16b
16a
=7
8.f#
16a
16f#
16e
8d}
=8
{8a
16a
16f#
8.e
16f#
=9
8a
8dd
8b
8a
=10
8f#
8e
8d
8e
=11
16d
16e
16f#
16a
8e
8d
=12
2B}
=13
{4b
4b
=14
8.ee
16ff#
8dd
8b
=15
8dd
8dd
8b
8a
=16
4.f#
8a
=17
2b}
=18
{8.a
16b
8dd
8ee
=19
16b
16dd
16b
16a
4f#
=20
8dd
8dd
16b
16dd
16b
16a
=21
8.f#
16a
16f#
16e
8d}
=22
{8a
16a
16f#
8.e
16f#
=23
8a
8dd
8b
8a
=24
8f#
8e
8d
8e
=25
16d
16e
16f#
16a
8e
8d
=26
2B}
=27
{8a
8a
8a
8b
=28
8e
8f#
8e
8d
=29
2B}
=30
{8b
8dd
8ee
8b
=31
4.a
8b
=32
8dd
8dd
8b
8a
=33
8a
4f#
8a
=34
16b
16a
[4.b
=35
2b]}
==
!!!AGN: Xiaodiao, Shuahaier, Daoqing shishou
!!!AMT: simple duple
!!!AIN: vox
!!!EED: Helmut Schaffrath
!!!EEV: 1.0
*-
!!!ONB: Tied note syntax fixed by Craig Sapp, 2004/05/03/
